Simply-White-Circles/scalable/apps/wesnoth.svg

<svg xmlns="http://www.w3.org/2000/svg" width="48" height="48" viewBox="0 0 12.7 12.7"><path d="M6.34.07a6.29 6.29 0 0 0-6.29 6.3 6.29 6.29 0 0 0 6.3 6.28 6.29 6.29 0 0 0 6.28-6.29A6.29 6.29 0 0 0 6.34.07zm-.01.94a5.4 5.4 0 0 1 5.4 5.4 5.4 5.4 0 0 1-5.4 5.41 5.4 5.4 0 0 1-5.41-5.4A5.4 5.4 0 0 1 6.32 1zm3.44 1.5a.1.1 0 0 0-.05 0c-.05.18-.62.74-.95 1.1l-.4-.37c-.57-.51-.6.36-.58.38.1-.2.33-.28.74.15l-.43.4c.14.06.27.1.41.09l.28-.24c.44.43.35.47.16.75.28.08.79-.22.33-.6l-.31-.35c.35-.34.8-.83 1.08-.96.07-.14-.13-.36-.27-.36a.1.1 0 0 0-.01 0zm-6.92.02c-.14 0-.35.22-.27.36.28.13.72.62 1.08.96l-.32.34c-.45.39.06.69.34.61-.19-.28-.28-.32.16-.75l.28.24a.94.94 0 0 0 .4-.09l-.43-.4c.41-.43.64-.36.75-.15.01-.02-.01-.9-.58-.38l-.4.38c-.33-.37-.9-.93-.95-1.1a.1.1 0 0 0-.06-.02zm3.5 1.1a6.3 6.3 0 0 1-2.47.8c-.13 2.86.25 4.7 2.48 6.5 2.23-1.8 2.6-3.64 2.47-6.5a6.28 6.28 0 0 1-2.47-.8zm0 .25c.73.46 1.5.6 2.27.73.12 2.6-.22 4.28-2.26 5.94C4.32 8.9 3.97 7.22 4.1 4.61a5.74 5.74 0 0 0 2.26-.73zM4.29 8.62c-.44.47-1.02 1.01-1.04 1.55.45-.22.76-.69 1.2-1.17l-.16-.38zm4.14 0L8.26 9c.44.48.75.95 1.2 1.17-.02-.54-.6-1.08-1.04-1.55z" fill="#e6e6e6"/><path d="M6.36 4.91c-.45.2-.91.33-1.38.45-.07 1.58.14 2.84 1.38 3.85 1.24-1 1.45-2.27 1.37-3.85-.38-.11-.93-.26-1.37-.45z" fill="maroon" opacity=".75"/></svg>

<?xml version="1.0" encoding="UTF-8" standalone="no"?>
<svg
   xmlns:dc="http://purl.org/dc/elements/1.1/"
   xmlns:cc="http://creativecommons.org/ns#"
   xmlns:rdf="http://www.w3.org/1999/02/22-rdf-syntax-ns#"
   xmlns:svg="http://www.w3.org/2000/svg"
   xmlns="http://www.w3.org/2000/svg"
   xmlns:sodipodi="http://sodipodi.sourceforge.net/DTD/sodipodi-0.dtd"
   xmlns:inkscape="http://www.inkscape.org/namespaces/inkscape"
   width="48"
   height="48"
   viewBox="0 0 12.7 12.7"
   version="1.1"
   id="svg6"
   sodipodi:docname="wesnoth.svg"
   inkscape:version="0.92.4 (5da689c313, 2019-01-14)">
  <metadata
     id="metadata12">
    <rdf:RDF>
      <cc:Work
         rdf:about="">
        <dc:format>image/svg+xml</dc:format>
        <dc:type
           rdf:resource="http://purl.org/dc/dcmitype/StillImage" />
        <dc:title></dc:title>
      </cc:Work>
    </rdf:RDF>
  </metadata>
  <defs
     id="defs10" />
  <sodipodi:namedview
     pagecolor="#ffffff"
     bordercolor="#666666"
     borderopacity="1"
     objecttolerance="10"
     gridtolerance="10"
     guidetolerance="10"
     inkscape:pageopacity="0"
     inkscape:pageshadow="2"
     inkscape:window-width="1087"
     inkscape:window-height="480"
     id="namedview8"
     showgrid="false"
     inkscape:zoom="4.9166667"
     inkscape:cx="2.1355932"
     inkscape:cy="24"
     inkscape:window-x="0"
     inkscape:window-y="25"
     inkscape:window-maximized="0"
     inkscape:current-layer="svg6" />
  <path
     d="M 6.34,0.07 A 6.29,6.29 0 0 0 0.05,6.37 6.29,6.29 0 0 0 6.35,12.65 6.29,6.29 0 0 0 12.63,6.36 6.29,6.29 0 0 0 6.34,0.07 Z M 6.33,1.01 a 5.4,5.4 0 0 1 5.4,5.4 5.4,5.4 0 0 1 -5.4,5.41 A 5.4,5.4 0 0 1 0.92,6.42 5.4,5.4 0 0 1 6.32,1 Z m 3.44,1.5 a 0.1,0.1 0 0 0 -0.05,0 C 9.67,2.69 9.1,3.25 8.77,3.61 L 8.37,3.24 C 7.8,2.73 7.77,3.6 7.79,3.62 7.89,3.42 8.12,3.34 8.53,3.77 L 8.1,4.17 c 0.14,0.06 0.27,0.1 0.41,0.09 L 8.79,4.02 C 9.23,4.45 9.14,4.49 8.95,4.77 9.23,4.85 9.74,4.55 9.28,4.17 L 8.97,3.82 C 9.32,3.48 9.77,2.99 10.05,2.86 10.12,2.72 9.92,2.5 9.78,2.5 a 0.1,0.1 0 0 0 -0.01,0 z M 2.85,2.53 C 2.71,2.53 2.5,2.75 2.58,2.89 2.86,3.02 3.3,3.51 3.66,3.85 L 3.34,4.19 C 2.89,4.58 3.4,4.88 3.68,4.8 3.49,4.52 3.4,4.48 3.84,4.05 L 4.12,4.29 A 0.94,0.94 0 0 0 4.52,4.2 L 4.09,3.8 C 4.5,3.37 4.73,3.44 4.84,3.65 4.85,3.63 4.83,2.75 4.26,3.27 L 3.86,3.65 C 3.53,3.28 2.96,2.72 2.91,2.55 A 0.1,0.1 0 0 0 2.85,2.53 Z m 3.5,1.1 a 6.3,6.3 0 0 1 -2.47,0.8 c -0.13,2.86 0.25,4.7 2.48,6.5 2.23,-1.8 2.6,-3.64 2.47,-6.5 A 6.28,6.28 0 0 1 6.36,3.63 Z m 0,0.25 C 7.08,4.34 7.85,4.48 8.62,4.61 8.74,7.21 8.4,8.89 6.36,10.55 4.32,8.9 3.97,7.22 4.1,4.61 A 5.74,5.74 0 0 0 6.36,3.88 Z M 4.29,8.62 C 3.85,9.09 3.27,9.63 3.25,10.17 3.7,9.95 4.01,9.48 4.45,9 Z m 4.14,0 L 8.26,9 C 8.7,9.48 9.01,9.95 9.46,10.17 9.44,9.63 8.86,9.09 8.42,8.62 Z"
     id="path2"
     inkscape:connector-curvature="0"
     style="fill:#e6e6e6" />
  <path
     d="M 6.36,4.91 C 5.91,5.11 5.45,5.24 4.98,5.36 4.91,6.94 5.12,8.2 6.36,9.21 7.6,8.21 7.81,6.94 7.73,5.36 7.35,5.25 6.8,5.1 6.36,4.91 Z"
     id="path4"
     inkscape:connector-curvature="0"
     style="opacity:0.75;fill:#800000" />
</svg>
